src/pos-icons/invert-colors.svg

<svg height="24" viewBox="0 0 24 24" width="24" xmlns="http://www.w3.org/2000/svg"><path d="m12 19.58c-1.6 0-3.11-.62-4.24-1.75-1.14-1.14-1.76-2.64-1.76-4.25 0-1.58.62-3.11 1.76-4.24l4.24-4.24m5.66 2.83-5.66-5.66-5.66 5.66c-3.12 3.12-3.12 8.19 0 11.31 1.56 1.56 3.61 2.34 5.66 2.34s4.1-.78 5.66-2.34c3.12-3.12 3.12-8.19 0-11.31z"/></svg>

<?xml version="1.0" encoding="UTF-8"?><!DOCTYPE svg PUBLIC "-//W3C//DTD SVG 1.1//EN" "http://www.w3.org/Graphics/SVG/1.1/DTD/svg11.dtd"><svg xmlns="http://www.w3.org/2000/svg" xmlns:xlink="http://www.w3.org/1999/xlink" version="1.1" id="mdi-invert-colors" width="24" height="24" viewBox="0 0 24 24"><path d="M12,19.58V19.58C10.4,19.58 8.89,18.96 7.76,17.83C6.62,16.69 6,15.19 6,13.58C6,12 6.62,10.47 7.76,9.34L12,5.1M17.66,7.93L12,2.27V2.27L6.34,7.93C3.22,11.05 3.22,16.12 6.34,19.24C7.9,20.8 9.95,21.58 12,21.58C14.05,21.58 16.1,20.8 17.66,19.24C20.78,16.12 20.78,11.05 17.66,7.93Z" /></svg>
